data/chains/V2/sei/sei.branded.svg

<svg width="24" height="24" viewBox="0 0 24 24" fill="none" xmlns="http://www.w3.org/2000/svg">
<path d="M20.497 17.2499C21.5864 15.5008 22.1055 13.4564 21.9822 11.3995C21.859 9.34255 21.0996 7.37477 19.809 5.76831C19.3091 5.89221 18.9913 6.17353 18.4782 6.6181C18.4326 6.65308 18.3868 6.69437 18.3412 6.74199C17.561 7.50881 16.5113 7.93945 15.4173 7.9416C14.7497 7.9416 14.2308 7.81625 13.7804 7.59761C13.3941 7.39792 13.107 7.13555 12.9131 6.96063L12.8694 6.9169C12.6624 6.73033 12.5312 6.62393 12.3446 6.5423C12.026 6.42009 11.6856 6.36501 11.3447 6.38051C10.6319 6.38051 9.89585 6.71721 9.20786 7.24195C8.64574 7.67502 8.15278 8.19109 7.74589 8.77244L6.18479 7.73608C6.70395 6.98139 7.33846 6.31295 8.06511 5.75519C8.99293 4.99247 10.1445 4.55382 11.3447 4.50602C12.0691 4.50602 12.6376 4.61826 13.1128 4.83107C13.588 5.04388 13.9057 5.33103 14.1302 5.53072C14.3678 5.74936 14.48 5.84265 14.6302 5.92427C14.7686 5.99278 14.9873 6.06712 15.4173 6.06712C16.1679 6.06712 16.579 5.77997 17.1037 5.31791L17.267 5.18089C17.6129 4.85924 17.9899 4.57793 18.3981 4.33694C17.0164 3.1804 15.3482 2.41809 13.5695 2.13041C11.7907 1.84273 9.96727 2.04032 8.29141 2.70235C6.61559 3.36439 5.14942 4.46635 4.04753 5.89202C2.94564 7.3177 2.24884 9.01428 2.03061 10.8029C2.6036 10.5667 3.21683 10.4435 3.83659 10.44C4.82292 10.4206 5.78396 10.7528 6.54772 11.3772L6.5725 11.3962C6.85382 11.5959 7.04622 11.7343 7.28381 11.8335C7.50245 11.9267 7.78379 12.0025 8.22107 12.0025C8.95279 12.0025 9.4265 11.6644 10.1451 11.109L10.1888 11.0711C10.8768 10.5347 11.8068 9.81613 13.225 9.81613C14.3926 9.81613 15.5557 10.4225 16.4478 11.0347C17.2422 11.5857 17.9717 12.2248 18.6225 12.9398L17.2174 14.189C16.6683 13.5838 16.0521 13.0428 15.3808 12.5768C14.5675 12.0215 13.8066 11.6906 13.225 11.6906C12.4875 11.6906 12.0138 12.0273 11.2951 12.5827L11.2514 12.6206C10.5634 13.1584 9.63348 13.877 8.21522 13.877C7.54618 13.877 7.00978 13.7517 6.54772 13.5578C6.11044 13.3698 5.76646 13.1205 5.49826 12.9325L5.47931 12.9208C5.25857 12.7491 5.01952 12.6025 4.76654 12.4836C4.46907 12.3633 4.15001 12.3057 3.8293 12.3145C3.1107 12.3145 2.48101 12.6089 2 12.9514C2.18383 14.923 2.95399 16.7943 4.21119 18.3242C4.54207 17.9744 4.93562 17.6056 5.36707 17.2616C6.19062 16.594 7.26488 15.9191 8.39598 15.7632C9.11457 15.6568 9.72093 15.7632 10.2515 15.9876C10.7573 16.2121 11.1508 16.5372 11.4511 16.7995L11.5196 16.8622C12.1318 17.3869 12.4073 17.6245 12.9131 17.6245C13.4932 17.6245 13.8941 17.3563 14.4742 16.8943L14.5864 16.7995C15.1185 16.3812 15.8983 15.7501 16.9856 15.7501C17.4667 15.7501 17.9535 15.8885 18.3791 16.0561C18.8164 16.2252 19.2537 16.4628 19.6662 16.7062C19.9533 16.8812 20.2405 17.0692 20.5029 17.2558L20.497 17.2499ZM19.3601 18.7483C19.142 18.5922 18.9168 18.4463 18.6852 18.3111C18.3675 18.1115 18.0329 17.9404 17.6853 17.7994C17.4626 17.6993 17.2235 17.6401 16.9798 17.6245C16.5863 17.6245 16.3049 17.8301 15.649 18.3548C15.0558 18.83 14.206 19.499 12.9131 19.499C11.6756 19.499 10.8826 18.7994 10.3637 18.3373L10.2209 18.2119C9.93957 17.9685 9.72093 17.8053 9.495 17.712C9.23205 17.5968 8.94105 17.5619 8.65835 17.6114C8.0345 17.7062 7.28383 18.1245 6.54045 18.7177C6.18705 19.0122 5.8494 19.325 5.52887 19.655C7.33292 21.1702 9.61409 21.9997 11.97 21.9974C13.36 21.9991 14.7351 21.7112 16.0074 21.1518C17.2799 20.5924 18.4218 19.7738 19.3601 18.7483Z" fill="url(#paint0_linear_376_10678)"/>
<defs>
<linearGradient id="paint0_linear_376_10678" x1="11.97" y1="2.00768" x2="11.97" y2="21.9974" gradientUnits="userSpaceOnUse">
<stop stop-color="#90305C"/>
<stop offset="1" stop-color="#DF3C41"/>
</linearGradient>
</defs>
</svg>

<svg xmlns="http://www.w3.org/2000/svg" width="24" height="24" fill="none" viewBox="0 0 24 24">
    <path fill="url(#SEI__a)" d="M20.496 17.25a9.94 9.94 0 0 0-.687-11.482c-.5.125-.818.406-1.33.85-.044.037-.094.075-.138.125a4.18 4.18 0 0 1-2.923 1.199c-.669 0-1.187-.125-1.637-.344-.387-.2-.675-.462-.868-.637l-.044-.043c-.206-.188-.337-.294-.525-.375a2.4 2.4 0 0 0-1-.163c-.711 0-1.448.338-2.135.862a7 7 0 0 0-1.462 1.53L6.185 7.737a8.7 8.7 0 0 1 1.88-1.98 5.5 5.5 0 0 1 3.28-1.25c.724 0 1.293.113 1.768.325.474.213.793.5 1.018.7.237.218.35.312.5.393.137.069.356.144.787.144.75 0 1.162-.287 1.686-.75l.163-.137a6.4 6.4 0 0 1 1.13-.843 10.013 10.013 0 0 0-16.366 6.465 4.7 4.7 0 0 1 1.805-.363 4.16 4.16 0 0 1 2.712.938l.024.018c.282.2.475.338.713.438.218.093.5.168.937.168.73 0 1.205-.337 1.924-.893l.043-.037c.687-.538 1.618-1.256 3.036-1.256 1.168 0 2.33.606 3.223 1.218.794.551 1.524 1.19 2.174 1.905l-1.405 1.25a10.7 10.7 0 0 0-1.837-1.612c-.812-.556-1.574-.887-2.155-.887-.737 0-1.212.337-1.93.893l-.044.038c-.687.537-1.618 1.255-3.036 1.255a4.2 4.2 0 0 1-1.667-.318c-.438-.188-.781-.438-1.05-.625l-.019-.012a3.8 3.8 0 0 0-.712-.438c-.225-.093-.506-.168-.937-.168-.718 0-1.349.293-1.83.637a9.93 9.93 0 0 0 2.211 5.372c.331-.35.725-.719 1.156-1.062.824-.669 1.899-1.343 3.03-1.5a3.37 3.37 0 0 1 1.855.226c.506.224.9.55 1.2.812l.068.062c.612.525.887.762 1.393.762.58 0 .98-.268 1.561-.73l.113-.094c.53-.419 1.312-1.05 2.398-1.05.482 0 .969.138 1.393.306.438.169.875.406 1.287.65.288.175.575.362.837.55zm-1.137 1.499c-.212-.15-.437-.3-.674-.438a6.3 6.3 0 0 0-1-.512 2 2 0 0 0-.706-.175c-.393 0-.674.206-1.33.731-.594.475-1.443 1.143-2.736 1.143-1.237 0-2.03-.7-2.549-1.162l-.144-.125c-.28-.243-.5-.406-.724-.5a1.46 1.46 0 0 0-.837-.1c-.625.094-1.374.513-2.118 1.106a13 13 0 0 0-1.012.937 10 10 0 0 0 6.44 2.343 10 10 0 0 0 7.39-3.248"/>
    <defs>
        <linearGradient id="SEI__a" x1="11.97" x2="11.97" y1="2.008" y2="21.997" gradientUnits="userSpaceOnUse">
            <stop stop-color="#90305C"/>
            <stop offset="1" stop-color="#DF3C41"/>
        </linearGradient>
    </defs>
</svg>
